src/assets/icons/default/IconInProgress.svg

<svg width="20" height="20" viewBox="0 0 24 24" fill="none" xmlns="http://www.w3.org/2000/svg">
<g clip-path="url(#clip0_94_7225)">
<path d="M23.4708 12.3171C23.1853 12.0568 22.7492 12.0848 22.4969 12.3794L22.4858 12.3924V11.8935C22.4858 8.98372 21.3876 6.24807 19.3936 4.19045C17.3997 2.13301 14.7486 1 11.9288 1C10.2254 1 8.5329 1.42866 7.03386 2.23943C5.58352 3.02388 4.31051 4.16505 3.35248 5.53982C3.13004 5.85891 3.20048 6.30388 3.50988 6.53341C3.81928 6.76313 4.2505 6.69045 4.47294 6.37118C5.30628 5.17532 6.41344 4.18266 7.67459 3.50056C8.9767 2.7962 10.4477 2.42391 11.9288 2.42391C16.989 2.42391 21.1059 6.67209 21.1059 11.8937V12.3926L21.0946 12.3796C20.8423 12.0848 20.4062 12.057 20.1207 12.3173C19.835 12.5776 19.8081 13.0276 20.0604 13.3222L21.2786 14.7454C21.4095 14.8983 21.5978 14.9858 21.7957 14.9858C21.9935 14.9858 22.1818 14.8983 22.3128 14.7454L23.531 13.3222C23.7834 13.0274 23.7565 12.5774 23.4708 12.3171Z" fill="currentColor" stroke="currentColor" stroke-width="0.5"/>
<path d="M20.4911 16.8407C20.1817 16.6276 19.7507 16.6949 19.528 16.9913C18.6947 18.1016 17.5875 19.0233 16.3264 19.6569C15.0243 20.3109 13.5531 20.6566 12.0722 20.6566C7.01195 20.6566 2.89502 16.7119 2.89502 11.8634V11.4001L2.90634 11.4123C3.15861 11.6859 3.59468 11.7119 3.88019 11.47C4.16588 11.2283 4.19283 10.8105 3.94056 10.5369L2.72235 9.21541C2.59119 9.07337 2.40307 8.99194 2.20525 8.99194C2.00742 8.99194 1.81894 9.07337 1.68814 9.21541L0.469749 10.5369C0.217483 10.8106 0.244434 11.2283 0.53012 11.47C0.661284 11.5812 0.824251 11.6358 0.986678 11.6358C1.17749 11.6358 1.36759 11.5602 1.50397 11.4123L1.51511 11.4001V11.8634C1.51511 14.5654 2.61329 17.1055 4.60734 19.0161C6.60121 20.9267 9.25234 21.9788 12.0722 21.9788C13.7753 21.9788 15.4681 21.5808 16.9671 20.8279C18.4173 20.0995 19.6903 19.0397 20.6483 17.7633C20.8708 17.4668 20.8005 17.0538 20.4911 16.8407Z" fill="currentColor" stroke="currentColor" stroke-width="0.5"/>
<path d="M5.19738 13.1379C5.14996 13.3022 5.17475 13.4773 5.26636 13.6247L6.64591 15.8477C6.73734 15.9951 6.88805 16.1025 7.06462 16.1466C7.24138 16.1906 7.42963 16.1677 7.58806 16.0825L8.60242 15.5377C9.00749 15.8321 9.45638 16.0738 9.93168 16.2532V17.3413C9.93168 17.6955 10.2405 17.9829 10.6215 17.9829H13.3806C13.7614 17.9829 14.0703 17.6955 14.0703 17.3413V16.2532C14.5456 16.0738 14.9945 15.8321 15.3996 15.5377L16.4139 16.0825C16.5722 16.1675 16.7606 16.1906 16.9372 16.1466C17.114 16.1025 17.2647 15.9951 17.3561 15.8477L18.7356 13.6247C18.8271 13.4773 18.8519 13.3022 18.8046 13.1379C18.7572 12.9735 18.6415 12.8333 18.4833 12.7482L17.4668 12.2023C17.5016 11.968 17.5192 11.7309 17.5192 11.4938C17.5192 11.2538 17.5012 11.0144 17.4655 10.7774L18.4833 10.2308C18.6417 10.1457 18.7572 10.0055 18.8046 9.84112C18.8519 9.67669 18.8271 9.50156 18.7356 9.35417L17.3561 7.13135C17.1657 6.82455 16.7437 6.71944 16.4139 6.89657L15.3929 7.44501C14.9895 7.15274 14.5429 6.91278 14.0703 6.73431V5.63777C14.0703 5.28351 13.7615 4.99609 13.3806 4.99609H10.6215C10.2405 4.99609 9.93168 5.28351 9.93168 5.63777V6.73431C9.45925 6.91278 9.01252 7.15274 8.60925 7.44501L7.58806 6.89657C7.25826 6.71927 6.83631 6.82455 6.64591 7.13135L5.26636 9.35417C5.17493 9.50156 5.15014 9.67685 5.19738 9.84112C5.2448 10.0055 5.3603 10.1457 5.51874 10.2308L6.53651 10.7774C6.50077 11.0144 6.4828 11.2538 6.4828 11.4938C6.4828 11.7309 6.50041 11.9679 6.53526 12.2023L5.51892 12.7482C5.3603 12.8333 5.2448 12.9735 5.19738 13.1379ZM12.001 9.56874C13.1438 9.56874 14.0703 10.4307 14.0703 11.4938C14.0703 12.5569 13.1438 13.4188 12.001 13.4188C10.858 13.4188 9.93168 12.5569 9.93168 11.4938C9.93168 10.4307 10.8582 9.56874 12.001 9.56874Z" fill="currentColor"/>
</g>
</svg>

<svg xmlns="http://www.w3.org/2000/svg" width="20" height="20" fill="none" viewBox="0 0 24 24">
  <g fill="currentcolor" clip-path="url(#clip0_94_7225)">
    <path stroke="currentcolor" stroke-width=".5" d="M23.47 12.32a.7.7 0 0 0-.97.06l-.01.01v-.5a11 11 0 0 0-3.1-7.7A10.33 10.33 0 0 0 3.35 5.54a.73.73 0 0 0 .16 1c.3.22.74.15.96-.17a9.4 9.4 0 0 1 3.2-2.87 9 9 0 0 1 4.26-1.08c5.06 0 9.18 4.25 9.18 9.47v.5l-.02-.01a.7.7 0 0 0-.97-.06.73.73 0 0 0-.06 1l1.22 1.43a.68.68 0 0 0 1.03 0l1.22-1.43a.73.73 0 0 0-.06-1Zm-2.97 4.52a.7.7 0 0 0-.97.15 9 9 0 0 1-3.2 2.67 9.6 9.6 0 0 1-4.26 1c-5.06 0-9.17-3.95-9.17-8.8v-.46.01c.26.28.7.3.98.06a.64.64 0 0 0 .06-.93L2.72 9.22a.7.7 0 0 0-.51-.23.7.7 0 0 0-.52.23L.47 10.54a.64.64 0 0 0 .06.93q.2.17.46.17a.7.7 0 0 0 .51-.23l.02-.01v.46c0 2.7 1.1 5.25 3.09 7.16a11 11 0 0 0 12.36 1.81 10.5 10.5 0 0 0 3.68-3.07.64.64 0 0 0-.16-.92Z"/>
    <path d="M5.2 13.14a.6.6 0 0 0 .07.48l1.38 2.23q.14.22.41.3.28.06.53-.07l1.01-.54q.61.44 1.33.71v1.1c0 .35.31.63.7.63h2.75c.38 0 .69-.28.69-.64v-1.09q.72-.27 1.33-.71l1.01.54q.25.13.53.07a.7.7 0 0 0 .42-.3l1.38-2.23a.6.6 0 0 0 .06-.48.7.7 0 0 0-.32-.4l-1.01-.54a5 5 0 0 0 0-1.42l1.01-.55a.7.7 0 0 0 .32-.39.6.6 0 0 0-.06-.49l-1.38-2.22a.7.7 0 0 0-.95-.23l-1.02.55q-.6-.45-1.32-.72v-1.1c0-.35-.3-.63-.69-.63h-2.76c-.38 0-.69.28-.69.64v1.1q-.71.26-1.32.7L7.59 6.9a.7.7 0 0 0-.94.23L5.27 9.35a.6.6 0 0 0-.07.5q.07.25.32.38l1.02.55a5 5 0 0 0 0 1.42l-1.02.55a.7.7 0 0 0-.32.39M12 9.57c1.14 0 2.07.86 2.07 1.92 0 1.07-.93 1.93-2.07 1.93s-2.07-.86-2.07-1.93.93-1.92 2.07-1.92"/>
  </g>
</svg>
